svg/logo/dribbble_line.svg

<?xml version="1.0" encoding="UTF-8"?>
<svg width="24px" height="24px" viewBox="0 0 24 24" version="1.1" xmlns="http://www.w3.org/2000/svg" xmlns:xlink="http://www.w3.org/1999/xlink">
    <title>dribbble_line</title>
    <g id="Icon" stroke="none" stroke-width="1" fill="none" fill-rule="evenodd">
        <g id="Logo" transform="translate(-96.000000, -96.000000)">
            <g id="dribbble_line" transform="translate(96.000000, 96.000000)">
                <path d="M24,0 L24,24 L0,24 L0,0 L24,0 Z M12.5935,23.2578 L12.5819,23.2595 L12.5109,23.295 L12.4919,23.2987 L12.4767,23.295 L12.4057,23.2595 C12.3958,23.2564 12.387,23.259 12.3821,23.2649 L12.378,23.2758 L12.3609,23.7031 L12.3659,23.7235 L12.3769,23.7357 L12.4805,23.8097 L12.4953,23.8136 L12.5071,23.8097 L12.6107,23.7357 L12.6233,23.7197 L12.6267,23.7031 L12.6096,23.2758 C12.6076,23.2657 12.601,23.2593 12.5935,23.2578 Z M12.8584,23.1453 L12.8445,23.1473 L12.6598,23.2397 L12.6499,23.2499 L12.6472,23.2611 L12.6651,23.6906 L12.6699,23.7034 L12.6784,23.7105 L12.8793,23.8032 C12.8914,23.8069 12.9022,23.803 12.9078,23.7952 L12.9118,23.7812 L12.8777,23.1665 C12.8753,23.1546 12.8674,23.147 12.8584,23.1453 Z M12.143,23.1473 C12.1332,23.1424 12.1222,23.1453 12.1156,23.1526 L12.1099,23.1665 L12.0758,23.7812 C12.0751,23.7927 12.0828,23.8019 12.0926,23.8046 L12.1083,23.8032 L12.3092,23.7105 L12.3186,23.7024 L12.3225,23.6906 L12.3404,23.2611 L12.3372,23.2485 L12.3278,23.2397 L12.143,23.1473 Z" id="MingCute" fill-rule="nonzero"></path>
                <path d="M12,2 C17.5228,2 22,6.47715 22,12 C22,17.5228 17.5228,22 12,22 C6.47715,22 2,17.5228 2,12 C2,6.47715 6.47715,2 12,2 Z M13.6167,13.9835 C11.0392,14.7393 8.82113,16.3371 7.28059,18.4603 C8.60357,19.4284 10.235,20 12,20 C13.0717,20 14.0941,19.7893 15.0282,19.407 C14.7097,17.5411 14.2345,15.7286 13.6167,13.9835 Z M15.5948,13.5814 C16.127,15.1243 16.5545,16.7162 16.8686,18.3485 C18.3102,17.2413 19.3639,15.6541 19.7907,13.8259 C18.4208,13.4998407 16.9933,13.4183 15.5948,13.5814 Z M12.3508,10.9124 C9.6853,11.8575 6.81224,12.1902 4.00066,11.896 L4,12 L4,12 C4,13.9273 4.68154,15.6954 5.81676,17.0765 C7.57152,14.7505 10.0362,12.9884 12.8893,12.1133 C12.7176,11.7088 12.538,11.3084 12.3508,10.9124 Z M18.4885,7.31938 C17.2005,8.44362 15.759,9.39707 14.1997,10.1442 C14.4341,10.6435 14.6571,11.1493 14.8682,11.6613 C16.5687,11.4014 18.3173,11.4551 19.9981,11.822 C19.9614,10.1425 19.4072,8.5906 18.4885,7.31938 Z M8.57321,4.76902 C6.48083,5.76236 4.88811,7.63714 4.27479,9.91359 C6.68198,10.156 9.13827,9.88673 11.4319,9.11395 C10.5922,7.58813 9.6353,6.13578 8.57321,4.76902 Z M12,4 C11.5205,4 11.0508,4.04219 10.5945,4.12306 C11.5926,5.46408 12.497,6.87912 13.298,8.35845 C14.6874,7.69701 15.973,6.85246 17.1237,5.85583 C15.7358,4.6972 13.9493,4 12,4 Z" id="形状" fill="#09244B"></path>
            </g>
        </g>
    </g>
</svg>

<svg xmlns="http://www.w3.org/2000/svg" width="24" height="24"><g fill="none" fill-rule="evenodd"><path d="M24 0v24H0V0h24ZM12.594 23.258l-.012.002-.071.035-.02.004-.014-.004-.071-.036c-.01-.003-.019 0-.024.006l-.004.01-.017.428.005.02.01.013.104.074.015.004.012-.004.104-.074.012-.016.004-.017-.017-.427c-.002-.01-.009-.017-.016-.018Zm.264-.113-.014.002-.184.093-.01.01-.003.011.018.43.005.012.008.008.201.092c.012.004.023 0 .029-.008l.004-.014-.034-.614c-.003-.012-.01-.02-.02-.022Zm-.715.002a.023.023 0 0 0-.027.006l-.006.014-.034.614c0 .012.007.02.017.024l.015-.002.201-.093.01-.008.003-.011.018-.43-.003-.012-.01-.01-.184-.092Z"/><path fill="#09244B" d="M12 2c5.523 0 10 4.477 10 10s-4.477 10-10 10S2 17.523 2 12 6.477 2 12 2Zm1.617 11.984A12.019 12.019 0 0 0 7.28 18.46 7.964 7.964 0 0 0 12 20c1.072 0 2.094-.21 3.028-.593a32.766 32.766 0 0 0-1.411-5.424Zm1.978-.403c.532 1.543.96 3.135 1.274 4.768a8.004 8.004 0 0 0 2.922-4.523 12.11 12.11 0 0 0-4.196-.245Zm-3.244-2.669a19.117 19.117 0 0 1-8.35.984L4 12c0 1.927.682 3.695 1.817 5.076a14.024 14.024 0 0 1 7.072-4.963 32.77 32.77 0 0 0-.538-1.2Zm6.137-3.593a19.027 19.027 0 0 1-4.288 2.825c.234.5.457 1.005.668 1.517 1.7-.26 3.45-.206 5.13.161a7.96 7.96 0 0 0-1.51-4.503ZM8.574 4.77a8.02 8.02 0 0 0-4.298 5.145 17.115 17.115 0 0 0 7.157-.8 33.054 33.054 0 0 0-2.859-4.345ZM12 4c-.48 0-.95.042-1.405.123a35.03 35.03 0 0 1 2.703 4.235 17.02 17.02 0 0 0 3.826-2.502A7.968 7.968 0 0 0 12 4Z"/></g></svg>
